X:1550
T:Jacob's Ladder
C:Nigel Gatherer & Seoniad Lynn
Z:Nigel Gatherer
M:6/8
L:1/8
K:G
B2 G cBA|FEF GDB,|CEC B,DB,|A^CE FGA|B2 G cBA|
FEF GAB|cBA dBG|FED G3::G,B,D GFE|DCB, A,2 G,|
A,^CE A2 G|FGA d2 c|B2 G cBA|def gdB|cBA dBG|FED G3:|

